X:30
T:Calder Fair - A Dance
S:John Moore's Book 2
Z:Transcribed by Taz Tarry 04/2021
%%VWML: Moore1-4494-p26-1
F:http://www.vwml.org/record/Moore2/4494/p26
N:The last bar in the A and the B parts are a crotchet beat short in the ms.
N:The second bar in the B part is a quaver beat short in the ms.
M:C|
L:1/8
K:G
gfed g2 B2|d2(de)d2 (ef)|gfed g2 B2|ABcd e2:|
dggg g2 g2|faaa a2 (g/a/)|bagf gfed|egfa g2:|

